X: 17
T: Croydon Fair
%R: reel
B: "Twenty Four Favourite Dances for the Year 1783", Thomas Straight, ed. p.9 #1
F: http://www.vwml.org/browse/browse-collections-dance-tune-books/browse-straights1783
Z: 2014 John Chambers <jc:trillian.mit.edu>
M: C|
L: 1/8
K: A
cB |\
A3B  ABcd | fgaf e2c2 | e3f  ecBA | G2 B4 Bc |\
d3e  fgaf | dcBA G3B  | AcBd ceAc | c2 A4 :|
|: a2 |\
ecAc e3f  | e2A2 cdec | dcde fgab | g2 e4 dc |\
dcde fgac | dcBA GBeB | ceac Bcde | c2 A4 :|
% - - - - - - - - - - Dance description: - - - - - - - - - -
%%begintext align
%% Hey contrary sides .|. then on your own sides
%% .|: lead down the middle up again and cast
%% off :|. hands 4 round right & left at top :|:
%%endtext

%%sep 1 1 500
%%sep 1 1 500
